sys/assets/icons/vector/20.svg

<svg xmlns="http://www.w3.org/2000/svg" height="24" width="24"><path d="M4 2c-1.108 0-2 .892-2 2v5c0 1.108.892 2 2 2h5c1.108 0 2-.892 2-2V4c0-1.108-.892-2-2-2H4zm11 0c-1.108 0-2 .892-2 2v5c0 1.108.892 2 2 2h5c1.108 0 2-.892 2-2V4c0-1.108-.892-2-2-2h-5zM4 13c-1.108 0-2 .892-2 2v5c0 1.108.892 2 2 2h5c1.108 0 2-.892 2-2v-5c0-1.108-.892-2-2-2H4zm11 0c-1.108 0-2 .892-2 2v5c0 1.108.892 2 2 2h5c1.108 0 2-.892 2-2v-5c0-1.108-.892-2-2-2h-5z"/></svg>

<?xml version="1.0" encoding="UTF-8" standalone="no"?>
<svg
   xmlns:dc="http://purl.org/dc/elements/1.1/"
   xmlns:cc="http://creativecommons.org/ns#"
   xmlns:rdf="http://www.w3.org/1999/02/22-rdf-syntax-ns#"
   xmlns:svg="http://www.w3.org/2000/svg"
   xmlns="http://www.w3.org/2000/svg"
   xmlns:sodipodi="http://sodipodi.sourceforge.net/DTD/sodipodi-0.dtd"
   xmlns:inkscape="http://www.inkscape.org/namespaces/inkscape"
   fill="#000000"
   height="24"
   viewBox="0 0 24 24"
   width="24"
   version="1.1"
   id="svg6"
   sodipodi:docname="20.svg"
   inkscape:version="0.92.3 (unknown)">
  <metadata
     id="metadata12">
    <rdf:RDF>
      <cc:Work
         rdf:about="">
        <dc:format>image/svg+xml</dc:format>
        <dc:type
           rdf:resource="http://purl.org/dc/dcmitype/StillImage" />
        <dc:title />
      </cc:Work>
    </rdf:RDF>
  </metadata>
  <defs
     id="defs10" />
  <sodipodi:namedview
     pagecolor="#ffffff"
     bordercolor="#666666"
     borderopacity="1"
     objecttolerance="10"
     gridtolerance="10"
     guidetolerance="10"
     inkscape:pageopacity="0"
     inkscape:pageshadow="2"
     inkscape:window-width="1883"
     inkscape:window-height="1012"
     id="namedview8"
     showgrid="false"
     inkscape:zoom="13.906434"
     inkscape:cx="5.2169473"
     inkscape:cy="6.2042494"
     inkscape:window-x="0"
     inkscape:window-y="32"
     inkscape:window-maximized="1"
     inkscape:current-layer="svg6" />
  <path
     style="opacity:1;fill:#000000;fill-opacity:1;stroke-width:1.33214569"
     d="M 4 2 C 2.892 2 2 2.892 2 4 L 2 9 C 2 10.108 2.892 11 4 11 L 9 11 C 10.108 11 11 10.108 11 9 L 11 4 C 11 2.892 10.108 2 9 2 L 4 2 z M 15 2 C 13.892 2 13 2.892 13 4 L 13 9 C 13 10.108 13.892 11 15 11 L 20 11 C 21.108 11 22 10.108 22 9 L 22 4 C 22 2.892 21.108 2 20 2 L 15 2 z M 4 13 C 2.892 13 2 13.892 2 15 L 2 20 C 2 21.108 2.892 22 4 22 L 9 22 C 10.108 22 11 21.108 11 20 L 11 15 C 11 13.892 10.108 13 9 13 L 4 13 z M 15 13 C 13.892 13 13 13.892 13 15 L 13 20 C 13 21.108 13.892 22 15 22 L 20 22 C 21.108 22 22 21.108 22 20 L 22 15 C 22 13.892 21.108 13 20 13 L 15 13 z "
     id="rect824" />
</svg>
